images/menu-open.svg

<svg xmlns="http://www.w3.org/2000/svg" width="88.6" height="72" viewBox="0 0 88.6 72"><path fill="#0191A5" d="M6.5 0h75.6c3.6 0 6.5 2.9 6.5 6.5s-2.9 6.5-6.5 6.5h-75.6c-3.6 0-6.5-2.9-6.5-6.5s2.9-6.5 6.5-6.5zM6.5 29.5h75.6c3.6 0 6.5 2.9 6.5 6.5s-2.9 6.5-6.5 6.5h-75.6c-3.6 0-6.5-2.9-6.5-6.5s2.9-6.5 6.5-6.5zM6.5 59h75.6c3.6 0 6.5 2.9 6.5 6.5s-2.9 6.5-6.5 6.5h-75.6c-3.6 0-6.5-2.9-6.5-6.5s2.9-6.5 6.5-6.5z"/></svg>

<?xml version="1.0" encoding="utf-8"?>
<!-- Generator: Adobe Illustrator 18.1.1, SVG Export Plug-In . SVG Version: 6.00 Build 0)  -->
<!DOCTYPE svg PUBLIC "-//W3C//DTD SVG 1.1//EN" "http://www.w3.org/Graphics/SVG/1.1/DTD/svg11.dtd">
<svg version="1.1" id="Layer_1" xmlns="http://www.w3.org/2000/svg" xmlns:xlink="http://www.w3.org/1999/xlink" x="0px" y="0px"
	 width="88.6px" height="72px" viewBox="0 0 88.6 72" enable-background="new 0 0 88.6 72" xml:space="preserve">
<path fill="#0191A5" d="M6.5,0h75.6c3.6,0,6.5,2.9,6.5,6.5v0c0,3.6-2.9,6.5-6.5,6.5H6.5C2.9,13,0,10.1,0,6.5v0C0,2.9,2.9,0,6.5,0z"
	/>
<path fill="#0191A5" d="M6.5,29.5h75.6c3.6,0,6.5,2.9,6.5,6.5v0c0,3.6-2.9,6.5-6.5,6.5H6.5C2.9,42.5,0,39.6,0,36v0
	C0,32.4,2.9,29.5,6.5,29.5z"/>
<path fill="#0191A5" d="M6.5,59h75.6c3.6,0,6.5,2.9,6.5,6.5v0c0,3.6-2.9,6.5-6.5,6.5H6.5C2.9,72,0,69.1,0,65.5v0
	C0,61.9,2.9,59,6.5,59z"/>
</svg>
